X:79
T:Reel 79
M:4/4
K:Dmaj
L:1/8
A2GE CDEG|A2AB cAGB|A2EC DFED|C2EG EDDG|A2AB cAGE|A2GE CDEF|G2GE DEFG| (3ABA BA EDD2|Addc A2Bd|cAAB c2Ad|cdec dccB|cAGE EDDz| (3ABc d2 cded|cAAB c2ed| (3Age  (3fga fded|cAGE EDD2|
